X:29
T:Alistair's Mischief
R:pipe reel
C:Dougie MacDonald
A:http://www.cranfordpub.com/dougie
H:Written for author, Alistair MacLeod
N:Bookings,Mechanicals etc.
N:..... Dougie MacDonald <dougmd68@hotmail.com>
Z:P.S.C.
S:http://www.cranfordpub.com/dougie
Q:333
L:1/8
M:C|
K:Amix
g|eAAB Beed|e2 gf e2 de|dGGA BA B2|dBgf e2 de|
eAAB Beed|e2 gf e2 ef|g2 fd edda|e2 dB A2 A:|
|:g|aAag eAAg|a2 g2 eaag|dGGA Bddf|g2f2 edeg|
a2 Aa geeg|a/a/a g2 eaag|e2 d2 deeg|e2 dB A2 A:|
W:Copyrights - Dougie MacDonald (SOCAN)

% if none of this makes sense, go to http://www.cranfordpub.com/tunes/abcs
